svg/arrow_oscillating_off.svg

<svg xmlns="http://www.w3.org/2000/svg" viewBox="0 0 24 24"><path d="M13 8.1v-2c5.3.5 7 5.3 7 7.9h3l-2.9 2.9-2.9-2.9h.8c0-2.1-1.6-5.4-5-5.9m-5.2-1L2.4 1.7 1.1 3l5.2 5.2C4.7 10 4 12.4 4 14H1l4 4 4-4H6c0-1.3.6-3 1.9-4.3l13 13 1.3-1.3L9.3 8.7zm3.2-1-1.5.3L11 7.8z"/></svg>

<svg xmlns="http://www.w3.org/2000/svg" id="mdi-arrow-oscillating-off" viewBox="0 0 24 24"><path d="M13 8.1V6.1C18.3 6.6 20 11.4 20 14H23L20.1 16.9L17.2 14H18C18 11.9 16.4 8.6 13 8.1M7.8 7.1L2.4 1.7L1.1 3L6.3 8.2C4.7 10 4 12.4 4 14H1L5 18L9 14H6C6 12.7 6.6 11 7.9 9.7L20.9 22.7L22.2 21.4L9.3 8.7L7.8 7.1M11 6.1L9.5 6.4L11 7.8V6.1Z" /></svg>
